svgs/duotone/arrow-down-small-big.svg

<svg xmlns="http://www.w3.org/2000/svg" viewBox="0 0 512 512"><!-- Font Awesome Pro 6.0.0-alpha2 by @fontawesome - https://fontawesome.com License - https://fontawesome.com/license (Commercial License) --><defs><style>.fa-secondary{opacity:.4}</style></defs><path d="M320 192H416C433.674 192 448 177.672 448 160V64C448 46.398 433.6 32 416 32H320C302.326 32 288 46.328 288 64V160C288 177.672 302.326 192 320 192ZM480 256H320C302.326 256 288 270.328 288 288V448C288 465.672 302.326 480 320 480H480C497.674 480 512 465.672 512 448V288C512 270.328 497.674 256 480 256Z" class="fa-secondary"/><path d="M237.623 328.695C250.652 340.648 251.527 360.914 239.591 373.961L151.593 470.055C139.468 483.312 116.531 483.312 104.406 470.055L16.408 373.961C4.472 360.914 5.347 340.648 18.377 328.695C24.517 323.062 32.267 320.281 39.986 320.281C48.658 320.281 57.283 323.781 63.595 330.664L96 366.062V64.031C96 46.328 110.328 32 128 32S160 46.328 160 64.031V366.063L192.404 330.664C204.357 317.656 224.607 316.75 237.623 328.695Z" class="fa-primary"/></svg>

<svg xmlns="http://www.w3.org/2000/svg" viewBox="0 0 512 512"><!--! Font Awesome Pro 6.3.0 by @fontawesome - https://fontawesome.com License - https://fontawesome.com/license (Commercial License) Copyright 2023 Fonticons, Inc. --><defs><style>.fa-secondary{opacity:.4}</style></defs><path class="fa-primary" d="M237.6 328.7c13.03 11.95 13.9 32.22 1.969 45.27l-87.1 96.09c-12.12 13.26-35.06 13.26-47.19 0l-87.1-96.09c-11.94-13.05-11.06-33.31 1.969-45.27c6.141-5.633 13.89-8.414 21.61-8.414c8.672 0 17.3 3.5 23.61 10.38L96 366.1V64.03C96 46.33 110.3 32 128 32s32 14.33 32 32.03v302l32.4-35.4C204.4 317.7 224.6 316.8 237.6 328.7z"/><path class="fa-secondary" d="M320 192h96c17.67 0 32-14.33 32-32V64c0-17.6-14.4-32-32-32h-96c-17.67 0-32 14.33-32 32v96C288 177.7 302.3 192 320 192zM480 256h-160c-17.67 0-32 14.33-32 32v160c0 17.67 14.33 32 32 32h160c17.67 0 32-14.33 32-32V288C512 270.3 497.7 256 480 256z"/></svg>
